X:2902
T:Chassepain - bourree
C:Gilles Chabenat
Z:abc transcription Simon Wascher
N:please mail errors to: simon.wascher@chello.at
M:2/4
L:1/8
K:Gmixo
g3/2d/2 BG-|GB dg|f3/2c/2 _BA-|AG Ac|
e3/2c/2 AG|Ac ec|d2 cd-|1de fd:|2d_B AG||
K:Gdorian
|:d3/2c/2 Ad-|dc de|f3/2e/2 dg-|g^f ga|
=b3/2a/2 gf-|fe dc|B2 AB-|1B2 AG:|2G4|]


